icons/gh.svg

<?xml version="1.0" ?>
<svg xmlns="http://www.w3.org/2000/svg" xmlns:ev="http://www.w3.org/2001/xml-events" xmlns:xlink="http://www.w3.org/1999/xlink" baseProfile="full" height="600px" version="1.1" viewBox="854.8143866889437 -1028.7382709959359 8523.01366664401 12297.132612225063" width="416px">
	<defs/>
	<path d="M 6270.0,10222.0 C 6270.0,10209.0 6251.0,10189.0 6216.0,10165.0 C 6164.0,10129.0 6161.0,10128.0 6139.0,10144.0 C 6126.0,10153.0 6101.0,10160.0 6083.0,10160.0 C 6057.0,10160.0 6047.0,10154.0 6035.0,10130.0 C 6023.0,10107.0 6022.0,10095.0 6030.0,10080.0 C 6039.0,10063.0 6035.0,10058.0 6002.0,10041.0 C 5981.0,10030.0 5958.0,10014.0 5951.0,10006.0 C 5942.0,9995.0 5921.0,9990.0 5885.0,9990.0 C 5828.0,9990.0 5817.0,9982.0 5777.0,9909.0 L 5759.0,9877.0 L 5725.0,9910.0 C 5706.0,9929.0 5690.0,9950.0 5690.0,9957.0 C 5690.0,9982.0 5649.0,9990.0 5525.0,9990.0 C 5423.0,9990.0 5398.0,9987.0 5394.0,9975.0 C 5385.0,9953.0 5360.0,9957.0 5332.0,9982.0 C 5307.0,10007.0 5200.0,10023.0 5090.0,10021.0 C 4589.0,10009.0 4581.0,10009.0 4548.0,10027.0 C 4524.0,10039.0 4483.0,10045.0 4394.0,10048.0 C 4277.0,10052.0 4272.0,10051.0 4265.0,10031.0 L 4259.0,10010.0 L 3287.0,10013.0 C 2370.0,10015.0 2315.0,10014.0 2312.0,9998.0 C 2310.0,9988.0 2319.0,9966.0 2331.0,9949.0 C 2352.0,9919.0 2352.0,9917.0 2336.0,9884.0 C 2327.0,9865.0 2309.0,9844.0 2295.0,9838.0 C 2281.0,9832.0 2267.0,9816.0 2265.0,9803.0 C 2262.0,9790.0 2258.0,9768.0 2254.0,9753.0 C 2251.0,9737.0 2231.0,9689.0 2208.0,9646.0 C 2172.0,9576.0 2169.0,9565.0 2183.0,9555.0 C 2197.0,9545.0 2197.0,9539.0 2177.0,9495.0 L 2154.0,9447.0 L 2192.0,9339.0 C 2236.0,9210.0 2241.0,9200.0 2287.0,9149.0 C 2320.0,9113.0 2325.0,9111.0 2363.0,9117.0 C 2399.0,9122.0 2403.0,9121.0 2397.0,9106.0 C 2393.0,9096.0 2390.0,9084.0 2390.0,9079.0 C 2390.0,9073.0 2377.0,9065.0 2362.0,9059.0 C 2333.0,9049.0 2300.0,8997.0 2300.0,8960.0 C 2300.0,8939.0 2392.0,8860.0 2416.0,8860.0 C 2437.0,8860.0 2398.0,8788.0 2365.0,8766.0 C 2344.0,8752.0 2342.0,8746.0 2350.0,8730.0 C 2365.0,8702.0 2373.0,8599.0 2362.0,8570.0 C 2355.0,8551.0 2359.0,8530.0 2381.0,8476.0 C 2408.0,8412.0 2409.0,8403.0 2400.0,8344.0 C 2390.0,8285.0 2391.0,8276.0 2415.0,8230.0 C 2429.0,8203.0 2440.0,8176.0 2440.0,8171.0 C 2440.0,8165.0 2420.0,8131.0 2396.0,8095.0 L 2352.0,8029.0 L 2372.0,7982.0 C 2383.0,7956.0 2401.0,7924.0 2410.0,7910.0 C 2427.0,7887.0 2427.0,7885.0 2404.0,7848.0 C 2374.0,7801.0 2380.0,7767.0 2424.0,7738.0 C 2441.0,7727.0 2472.0,7696.0 2493.0,7669.0 C 2523.0,7630.0 2531.0,7612.0 2531.0,7578.0 C 2531.0,7554.0 2532.0,7512.0 2533.0,7483.0 C 2535.0,7436.0 2531.0,7427.0 2501.0,7396.0 C 2469.0,7363.0 2468.0,7360.0 2480.0,7330.0 C 2487.0,7312.0 2504.0,7294.0 2517.0,7289.0 C 2551.0,7276.0 2545.0,7249.0 2500.0,7205.0 C 2478.0,7184.0 2453.0,7147.0 2444.0,7123.0 C 2435.0,7099.0 2422.0,7080.0 2415.0,7080.0 C 2409.0,7080.0 2399.0,7056.0 2393.0,7028.0 C 2387.0,6999.0 2380.0,6968.0 2376.0,6960.0 C 2363.0,6930.0 2393.0,6910.0 2480.0,6891.0 C 2564.0,6873.0 2565.0,6873.0 2563.0,6844.0 C 2559.0,6800.0 2588.0,6720.0 2608.0,6720.0 C 2621.0,6720.0 2625.0,6710.0 2627.0,6673.0 C 2628.0,6646.0 2630.0,6607.0 2631.0,6585.0 C 2632.0,6563.0 2630.0,6536.0 2626.0,6524.0 C 2620.0,6509.0 2624.0,6501.0 2642.0,6493.0 C 2664.0,6483.0 2669.0,6460.0 2739.0,6032.0 C 2779.0,5784.0 2810.0,5575.0 2807.0,5567.0 C 2801.0,5551.0 2708.0,5528.0 2667.0,5532.0 C 2646.0,5534.0 2635.0,5529.0 2623.0,5508.0 C 2607.0,5483.0 2607.0,5479.0 2622.0,5463.0 C 2637.0,5446.0 2676.0,5341.0 2669.0,5336.0 C 2667.0,5335.0 2629.0,5324.0 2585.0,5311.0 C 2513.0,5291.0 2499.0,5283.0 2445.0,5229.0 C 2409.0,5194.0 2376.0,5170.0 2363.0,5170.0 C 2344.0,5170.0 2341.0,5163.0 2335.0,5105.0 C 2329.0,5053.0 2323.0,5036.0 2304.0,5021.0 C 2288.0,5009.0 2280.0,4992.0 2280.0,4972.0 C 2280.0,4956.0 2273.0,4937.0 2265.0,4930.0 C 2257.0,4923.0 2250.0,4911.0 2250.0,4903.0 C 2250.0,4896.0 2243.0,4887.0 2234.0,4883.0 C 2225.0,4880.0 2192.0,4821.0 2159.0,4752.0 C 2104.0,4636.0 2100.0,4622.0 2100.0,4556.0 C 2100.0,4508.0 2086.0,4422.0 2056.0,4290.0 L 2012.0,4096.0 L 2035.0,4066.0 L 2058.0,4036.0 L 1999.0,3951.0 C 1950.0,3880.0 1940.0,3860.0 1940.0,3824.0 L 1940.0,3782.0 L 1891.0,3775.0 C 1863.0,3771.0 1837.0,3763.0 1832.0,3757.0 C 1826.0,3750.0 1781.0,3669.0 1730.0,3575.0 C 1622.0,3375.0 1608.0,3327.0 1633.0,3247.0 C 1658.0,3168.0 1656.0,3140.0 1626.0,3140.0 C 1578.0,3140.0 1550.0,3079.0 1585.0,3050.0 C 1596.0,3041.0 1600.0,3017.0 1600.0,2964.0 C 1600.0,2917.0 1611.0,2846.0 1631.0,2763.0 C 1648.0,2693.0 1665.0,2599.0 1669.0,2555.0 C 1675.0,2481.0 1677.0,2475.0 1700.0,2470.0 C 1721.0,2465.0 1732.0,2446.0 1771.0,2347.0 C 1804.0,2263.0 1819.0,2208.0 1824.0,2156.0 C 1829.0,2099.0 1842.0,2058.0 1879.0,1973.0 L 1928.0,1862.0 L 1919.0,1759.0 C 1905.0,1578.0 1902.0,1590.0 1961.0,1590.0 L 2012.0,1590.0 L 2008.0,1548.0 C 2005.0,1524.0 2008.0,1490.0 2012.0,1472.0 C 2021.0,1439.0 2023.0,1438.0 2058.0,1445.0 C 2078.0,1449.0 2107.0,1458.0 2123.0,1466.0 C 2149.0,1480.0 2157.0,1479.0 2218.0,1459.0 C 2321.0,1425.0 2314.0,1433.0 2321.0,1334.0 C 2325.0,1276.0 2336.0,1219.0 2354.0,1171.0 C 2369.0,1129.0 2380.0,1075.0 2380.0,1047.0 C 2380.0,1001.0 2378.0,998.0 2357.0,1003.0 C 2345.0,1005.0 2327.0,1011.0 2318.0,1015.0 C 2302.0,1021.0 2300.0,1016.0 2300.0,979.0 C 2300.0,953.0 2293.0,929.0 2283.0,918.0 C 2268.0,901.0 2268.0,898.0 2288.0,877.0 C 2302.0,862.0 2310.0,841.0 2310.0,819.0 C 2310.0,800.0 2322.0,760.0 2336.0,730.0 C 2370.0,656.0 2364.0,635.0 2304.0,626.0 C 2279.0,623.0 2227.0,623.0 2190.0,626.0 C 2145.0,631.0 2121.0,629.0 2116.0,621.0 C 2104.0,602.0 1994.0,608.0 1949.0,630.0 C 1918.0,646.0 1894.0,650.0 1842.0,648.0 C 1778.0,645.0 1775.0,644.0 1772.0,619.0 C 1769.0,594.0 1772.0,592.0 1932.0,547.0 C 2060.0,510.0 2128.0,497.0 2250.0,485.0 C 2389.0,470.0 2423.0,463.0 2587.0,409.0 C 2687.0,377.0 2802.0,345.0 2842.0,339.0 C 2993.0,315.0 3123.0,259.0 3173.0,195.0 C 3188.0,176.0 3214.0,153.0 3230.0,145.0 C 3246.0,136.0 3262.0,119.0 3266.0,106.0 C 3270.0,88.0 3283.0,79.0 3316.0,70.0 C 3348.0,61.0 3365.0,49.0 3376.0,29.0 C 3394.0,-6.0 3424.0,-9.0 3480.0,20.0 C 3502.0,31.0 3533.0,40.0 3550.0,40.0 C 3575.0,40.0 3591.0,51.0 3631.0,94.0 C 3663.0,130.0 3697.0,154.0 3732.0,169.0 C 3761.0,181.0 3802.0,199.0 3822.0,210.0 C 3842.0,221.0 3867.0,230.0 3878.0,230.0 C 3902.0,230.0 3930.0,261.0 3930.0,288.0 C 3930.0,318.0 3980.0,349.0 4047.0,362.0 C 4079.0,368.0 4110.0,374.0 4116.0,375.0 C 4122.0,377.0 4130.0,397.0 4134.0,419.0 C 4140.0,456.0 4143.0,460.0 4169.0,460.0 C 4185.0,460.0 4213.0,466.0 4231.0,474.0 C 4250.0,482.0 4298.0,493.0 4339.0,499.0 C 4380.0,506.0 4425.0,519.0 4440.0,530.0 C 4456.0,541.0 4484.0,550.0 4505.0,550.0 C 4525.0,550.0 4572.0,559.0 4608.0,569.0 C 4645.0,580.0 4714.0,595.0 4763.0,604.0 C 4852.0,621.0 4960.0,666.0 5022.0,713.0 C 5041.0,728.0 5073.0,747.0 5094.0,755.0 C 5129.0,770.0 5133.0,770.0 5145.0,754.0 C 5156.0,738.0 5166.0,737.0 5253.0,748.0 C 5306.0,755.0 5373.0,760.0 5404.0,760.0 C 5463.0,760.0 5472.0,765.0 5576.0,861.0 C 5651.0,931.0 5770.0,983.0 5903.0,1005.0 C 5947.0,1012.0 6005.0,1059.0 6014.0,1095.0 C 6018.0,1110.0 6049.0,1141.0 6095.0,1175.0 C 6153.0,1218.0 6178.0,1230.0 6206.0,1230.0 C 6226.0,1230.0 6288.0,1245.0 6345.0,1264.0 C 6401.0,1283.0 6487.0,1311.0 6536.0,1326.0 C 6585.0,1340.0 6642.0,1363.0 6663.0,1377.0 C 6683.0,1390.0 6714.0,1403.0 6731.0,1407.0 C 6750.0,1410.0 6778.0,1432.0 6808.0,1465.0 C 6839.0,1501.0 6867.0,1521.0 6892.0,1528.0 C 6913.0,1534.0 6942.0,1547.0 6957.0,1557.0 C 6972.0,1568.0 7045.0,1600.0 7117.0,1628.0 L 7250.0,1681.0 L 7337.0,1669.0 C 7423.0,1658.0 7775.0,1652.0 7784.0,1661.0 C 7787.0,1663.0 7784.0,1683.0 7778.0,1705.0 C 7763.0,1761.0 7756.0,1874.0 7768.0,1866.0 C 7773.0,1863.0 7780.0,1841.0 7783.0,1818.0 C 7785.0,1794.0 7802.0,1745.0 7820.0,1708.0 L 7852.0,1640.0 L 7940.0,1640.0 C 7992.0,1640.0 8045.0,1646.0 8070.0,1655.0 C 8093.0,1663.0 8138.0,1670.0 8169.0,1670.0 C 8215.0,1670.0 8233.0,1675.0 8261.0,1696.0 C 8280.0,1710.0 8301.0,1725.0 8308.0,1729.0 C 8315.0,1733.0 8336.0,1794.0 8354.0,1866.0 C 8373.0,1937.0 8392.0,2005.0 8397.0,2017.0 C 8406.0,2043.0 8496.0,2114.0 8584.0,2167.0 C 8676.0,2222.0 8673.0,2217.0 8649.0,2260.0 C 8630.0,2293.0 8621.0,2299.0 8581.0,2305.0 C 8473.0,2320.0 8470.0,2321.0 8450.0,2359.0 C 8440.0,2379.0 8415.0,2410.0 8396.0,2429.0 C 8374.0,2449.0 8356.0,2480.0 8347.0,2509.0 L 8334.0,2555.0 L 8255.0,2558.0 L 8176.0,2561.0 L 8125.0,2609.0 C 8098.0,2635.0 8063.0,2664.0 8048.0,2674.0 C 8016.0,2695.0 7919.0,2811.0 7896.0,2858.0 C 7879.0,2891.0 7879.0,2892.0 7904.0,2925.0 C 7943.0,2975.0 7939.0,2990.0 7887.0,2990.0 C 7851.0,2990.0 7838.0,2996.0 7812.0,3023.0 C 7783.0,3053.0 7780.0,3061.0 7779.0,3125.0 C 7777.0,3233.0 7773.0,3243.0 7712.0,3259.0 C 7665.0,3272.0 7660.0,3276.0 7660.0,3301.0 C 7660.0,3321.0 7650.0,3337.0 7625.0,3357.0 C 7585.0,3389.0 7583.0,3401.0 7610.0,3454.0 C 7632.0,3499.0 7624.0,3525.0 7584.0,3540.0 C 7564.0,3548.0 7559.0,3556.0 7562.0,3577.0 C 7564.0,3600.0 7572.0,3606.0 7609.0,3617.0 C 7633.0,3624.0 7662.0,3637.0 7672.0,3647.0 C 7703.0,3675.0 7722.0,3730.0 7715.0,3770.0 C 7697.0,3874.0 7697.0,3901.0 7719.0,3924.0 C 7733.0,3939.0 7743.0,3965.0 7746.0,4001.0 C 7749.0,4031.0 7761.0,4068.0 7772.0,4084.0 C 7791.0,4110.0 7791.0,4117.0 7780.0,4190.0 L 7768.0,4269.0 L 7697.0,4267.0 L 7627.0,4265.0 L 7591.0,4325.0 C 7564.0,4372.0 7555.0,4398.0 7552.0,4447.0 C 7545.0,4547.0 7555.0,4577.0 7599.0,4600.0 C 7643.0,4622.0 7650.0,4635.0 7650.0,4691.0 C 7650.0,4727.0 7676.0,4770.0 7698.0,4770.0 C 7702.0,4770.0 7706.0,4789.0 7706.0,4813.0 C 7706.0,4836.0 7707.0,4869.0 7708.0,4885.0 C 7708.0,4902.0 7709.0,4929.0 7709.0,4945.0 C 7708.0,4962.0 7711.0,4996.0 7715.0,5022.0 C 7720.0,5052.0 7718.0,5087.0 7710.0,5117.0 C 7692.0,5183.0 7681.0,5258.0 7671.0,5370.0 C 7663.0,5455.0 7664.0,5468.0 7681.0,5491.0 C 7697.0,5515.0 7698.0,5519.0 7685.0,5530.0 C 7677.0,5537.0 7670.0,5550.0 7670.0,5560.0 C 7670.0,5585.0 7743.0,5639.0 7809.0,5661.0 C 7881.0,5685.0 7890.0,5710.0 7854.0,5774.0 C 7841.0,5796.0 7830.0,5823.0 7830.0,5832.0 C 7830.0,5842.0 7814.0,5865.0 7795.0,5884.0 C 7769.0,5910.0 7760.0,5928.0 7760.0,5952.0 C 7760.0,6009.0 7728.0,6047.0 7665.0,6065.0 C 7624.0,6077.0 7606.0,6088.0 7598.0,6106.0 C 7592.0,6119.0 7578.0,6130.0 7568.0,6130.0 C 7558.0,6130.0 7542.0,6139.0 7533.0,6150.0 C 7523.0,6161.0 7508.0,6170.0 7498.0,6170.0 C 7488.0,6170.0 7468.0,6189.0 7453.0,6213.0 C 7422.0,6262.0 7330.0,6459.0 7330.0,6478.0 C 7330.0,6495.0 7375.0,6493.0 7390.0,6475.0 C 7409.0,6452.0 7420.0,6457.0 7420.0,6491.0 C 7420.0,6522.0 7421.0,6523.0 7460.0,6517.0 C 7497.0,6512.0 7500.0,6514.0 7500.0,6536.0 C 7500.0,6550.0 7509.0,6578.0 7520.0,6600.0 C 7531.0,6622.0 7540.0,6649.0 7540.0,6661.0 C 7540.0,6673.0 7518.0,6718.0 7490.0,6762.0 C 7463.0,6805.0 7439.0,6853.0 7438.0,6868.0 C 7437.0,6883.0 7446.0,6914.0 7459.0,6938.0 C 7477.0,6973.0 7479.0,6987.0 7471.0,7015.0 C 7463.0,7043.0 7465.0,7052.0 7482.0,7067.0 C 7522.0,7103.0 7540.0,7153.0 7529.0,7198.0 C 7521.0,7235.0 7523.0,7244.0 7550.0,7287.0 C 7577.0,7330.0 7580.0,7341.0 7580.0,7421.0 L 7580.0,7508.0 L 7549.0,7519.0 C 7526.0,7527.0 7520.0,7534.0 7524.0,7548.0 C 7529.0,7563.0 7521.0,7569.0 7477.0,7583.0 C 7425.0,7600.0 7326.0,7605.0 7284.0,7594.0 C 7273.0,7591.0 7259.0,7577.0 7254.0,7562.0 C 7246.0,7541.0 7231.0,7531.0 7186.0,7517.0 C 7116.0,7494.0 7080.0,7500.0 7080.0,7534.0 C 7080.0,7548.0 7077.0,7565.0 7074.0,7574.0 C 7069.0,7587.0 7075.0,7590.0 7107.0,7590.0 C 7136.0,7590.0 7153.0,7597.0 7170.0,7615.0 L 7193.0,7640.0 L 7149.0,7640.0 C 7107.0,7640.0 7102.0,7643.0 7087.0,7676.0 C 7077.0,7695.0 7072.0,7716.0 7076.0,7721.0 C 7079.0,7726.0 7114.0,7731.0 7153.0,7731.0 C 7193.0,7731.0 7237.0,7731.0 7252.0,7731.0 C 7285.0,7731.0 7304.0,7752.0 7295.0,7781.0 C 7289.0,7800.0 7283.0,7801.0 7242.0,7795.0 C 7187.0,7787.0 7191.0,7787.0 7163.0,7789.0 C 7149.0,7790.0 7140.0,7796.0 7140.0,7807.0 C 7140.0,7816.0 7132.0,7832.0 7123.0,7842.0 C 7108.0,7859.0 7108.0,7862.0 7122.0,7877.0 C 7135.0,7890.0 7144.0,7891.0 7171.0,7881.0 C 7188.0,7875.0 7216.0,7870.0 7231.0,7870.0 C 7258.0,7870.0 7260.0,7872.0 7260.0,7913.0 C 7260.0,7937.0 7253.0,7965.0 7245.0,7976.0 C 7223.0,8005.0 7226.0,8076.0 7251.0,8110.0 C 7270.0,8135.0 7272.0,8147.0 7266.0,8205.0 C 7260.0,8266.0 7261.0,8274.0 7285.0,8301.0 C 7316.0,8338.0 7316.0,8347.0 7288.0,8377.0 C 7258.0,8409.0 7272.0,8453.0 7313.0,8458.0 C 7339.0,8461.0 7341.0,8464.0 7335.0,8493.0 C 7331.0,8511.0 7315.0,8539.0 7299.0,8555.0 C 7281.0,8575.0 7272.0,8592.0 7276.0,8605.0 C 7278.0,8616.0 7287.0,8672.0 7295.0,8730.0 C 7304.0,8788.0 7313.0,8850.0 7317.0,8869.0 L 7323.0,8903.0 L 7284.0,8897.0 C 7246.0,8892.0 7244.0,8893.0 7211.0,8942.0 C 7185.0,8982.0 7179.0,9000.0 7183.0,9026.0 C 7188.0,9053.0 7184.0,9061.0 7163.0,9075.0 C 7140.0,9090.0 7136.0,9090.0 7122.0,9077.0 C 7109.0,9063.0 7103.0,9063.0 7079.0,9075.0 C 7056.0,9088.0 7050.0,9088.0 7040.0,9075.0 C 7030.0,9062.0 7021.0,9073.0 6990.0,9137.0 C 6969.0,9180.0 6949.0,9223.0 6946.0,9232.0 C 6943.0,9244.0 6926.0,9252.0 6898.0,9256.0 C 6864.0,9261.0 6845.0,9273.0 6808.0,9311.0 C 6756.0,9364.0 6731.0,9380.0 6700.0,9380.0 C 6688.0,9380.0 6661.0,9392.0 6640.0,9407.0 C 6610.0,9429.0 6600.0,9445.0 6591.0,9483.0 C 6575.0,9555.0 6576.0,9560.0 6632.0,9651.0 C 6682.0,9733.0 6686.0,9745.0 6706.0,9884.0 C 6711.0,9922.0 6720.0,9940.0 6743.0,9959.0 C 6772.0,9983.0 6772.0,9986.0 6767.0,10053.0 C 6762.0,10128.0 6761.0,10130.0 6692.0,10156.0 C 6652.0,10172.0 6647.0,10172.0 6611.0,10156.0 C 6574.0,10139.0 6571.0,10139.0 6533.0,10159.0 C 6511.0,10170.0 6490.0,10188.0 6488.0,10198.0 C 6484.0,10213.0 6470.0,10218.0 6414.0,10224.0 C 6376.0,10228.0 6328.0,10233.0 6308.0,10237.0 C 6275.0,10242.0 6270.0,10240.0 6270.0,10222.0" fill="pink"/>
</svg>

<?xml version="1.0" standalone="no"?>
<!DOCTYPE svg PUBLIC "-//W3C//DTD SVG 20010904//EN"
 "http://www.w3.org/TR/2001/REC-SVG-20010904/DTD/svg10.dtd">
<svg version="1.0" xmlns="http://www.w3.org/2000/svg"
 width="1024.000000pt" height="1024.000000pt" viewBox="0 0 1024.000000 1024.000000"
 preserveAspectRatio="xMidYMid meet">
<metadata>
Created by potrace 1.10, written by Peter Selinger 2001-2011
</metadata>
<g transform="translate(0.000000,1024.000000) scale(0.100000,-0.100000)"
fill="#000000" stroke="none">
<path d="M6270 10222 c0 -13 -19 -33 -54 -57 -52 -36 -55 -37 -77 -21 -13 9
-38 16 -56 16 -26 0 -36 -6 -48 -30 -12 -23 -13 -35 -5 -50 9 -17 5 -22 -28
-39 -21 -11 -44 -27 -51 -35 -9 -11 -30 -16 -66 -16 -57 0 -68 -8 -108 -81
l-18 -32 -34 33 c-19 19 -35 40 -35 47 0 25 -41 33 -165 33 -102 0 -127 -3
-131 -15 -9 -22 -34 -18 -62 7 -25 25 -132 41 -242 39 -501 -12 -509 -12 -542
6 -24 12 -65 18 -154 21 -117 4 -122 3 -129 -17 l-6 -21 -972 3 c-917 2 -972
1 -975 -15 -2 -10 7 -32 19 -49 21 -30 21 -32 5 -65 -9 -19 -27 -40 -41 -46
-14 -6 -28 -22 -30 -35 -3 -13 -7 -35 -11 -50 -3 -16 -23 -64 -46 -107 -36
-70 -39 -81 -25 -91 14 -10 14 -16 -6 -60 l-23 -48 38 -108 c44 -129 49 -139
95 -190 33 -36 38 -38 76 -32 36 5 40 4 34 -11 -4 -10 -7 -22 -7 -27 0 -6 -13
-14 -28 -20 -29 -10 -62 -62 -62 -99 0 -21 92 -100 116 -100 21 0 -18 -72 -51
-94 -21 -14 -23 -20 -15 -36 15 -28 23 -131 12 -160 -7 -19 -3 -40 19 -94 27
-64 28 -73 19 -132 -10 -59 -9 -68 15 -114 14 -27 25 -54 25 -59 0 -6 -20 -40
-44 -76 l-44 -66 20 -47 c11 -26 29 -58 38 -72 17 -23 17 -25 -6 -62 -30 -47
-24 -81 20 -110 17 -11 48 -42 69 -69 30 -39 38 -57 38 -91 0 -24 1 -66 2 -95
2 -47 -2 -56 -32 -87 -32 -33 -33 -36 -21 -66 7 -18 24 -36 37 -41 34 -13 28
-40 -17 -84 -22 -21 -47 -58 -56 -82 -9 -24 -22 -43 -29 -43 -6 0 -16 -24 -22
-52 -6 -29 -13 -60 -17 -68 -13 -30 17 -50 104 -69 84 -18 85 -18 83 -47 -4
-44 25 -124 45 -124 13 0 17 -10 19 -47 1 -27 3 -66 4 -88 1 -22 -1 -49 -5
-61 -6 -15 -2 -23 16 -31 22 -10 27 -33 97 -461 40 -248 71 -457 68 -465 -6
-16 -99 -39 -140 -35 -21 2 -32 -3 -44 -24 -16 -25 -16 -29 -1 -45 15 -17 54
-122 47 -127 -2 -1 -40 -12 -84 -25 -72 -20 -86 -28 -140 -82 -36 -35 -69 -59
-82 -59 -19 0 -22 -7 -28 -65 -6 -52 -12 -69 -31 -84 -16 -12 -24 -29 -24 -49
0 -16 -7 -35 -15 -42 -8 -7 -15 -19 -15 -27 0 -7 -7 -16 -16 -20 -9 -3 -42
-62 -75 -131 -55 -116 -59 -130 -59 -196 0 -48 -14 -134 -44 -266 l-44 -194
23 -30 23 -30 -59 -85 c-49 -71 -59 -91 -59 -127 l0 -42 -49 -7 c-28 -4 -54
-12 -59 -18 -6 -7 -51 -88 -102 -182 -108 -200 -122 -248 -97 -328 25 -79 23
-107 -7 -107 -48 0 -76 -61 -41 -90 11 -9 15 -33 15 -86 0 -47 11 -118 31
-201 17 -70 34 -164 38 -208 6 -74 8 -80 31 -85 21 -5 32 -24 71 -123 33 -84
48 -139 53 -191 5 -57 18 -98 55 -183 l49 -111 -9 -103 c-14 -181 -17 -169 42
-169 l51 0 -4 -42 c-3 -24 0 -58 4 -76 9 -33 11 -34 46 -27 20 4 49 13 65 21
26 14 34 13 95 -7 103 -34 96 -26 103 -125 4 -58 15 -115 33 -163 15 -42 26
-96 26 -124 0 -46 -2 -49 -23 -44 -12 2 -30 8 -39 12 -16 6 -18 1 -18 -36 0
-26 -7 -50 -17 -61 -15 -17 -15 -20 5 -41 14 -15 22 -36 22 -58 0 -19 12 -59
26 -89 34 -74 28 -95 -32 -104 -25 -3 -77 -3 -114 0 -45 5 -69 3 -74 -5 -12
-19 -122 -13 -167 9 -31 16 -55 20 -107 18 -64 -3 -67 -4 -70 -29 -3 -25 0
-27 160 -72 128 -37 196 -50 318 -62 139 -15 173 -22 337 -76 100 -32 215 -64
255 -70 151 -24 281 -80 331 -144 15 -19 41 -42 57 -50 16 -9 32 -26 36 -39 4
-18 17 -27 50 -36 32 -9 49 -21 60 -41 18 -35 48 -38 104 -9 22 11 53 20 70
20 25 0 41 11 81 54 32 36 66 60 101 75 29 12 70 30 90 41 20 11 45 20 56 20
24 0 52 31 52 58 0 30 50 61 117 74 32 6 63 12 69 13 6 2 14 22 18 44 6 37 9
41 35 41 16 0 44 6 62 14 19 8 67 19 108 25 41 7 86 20 101 31 16 11 44 20 65
20 20 0 67 9 103 19 37 11 106 26 155 35 89 17 197 62 259 109 19 15 51 34 72
42 35 15 39 15 51 -1 11 -16 21 -17 108 -6 53 7 120 12 151 12 59 0 68 5 172
101 75 70 194 122 327 144 44 7 102 54 111 90 4 15 35 46 81 80 58 43 83 55
111 55 20 0 82 15 139 34 56 19 142 47 191 62 49 14 106 37 127 51 20 13 51
26 68 30 19 3 47 25 77 58 31 36 59 56 84 63 21 6 50 19 65 29 15 11 88 43
160 71 l133 53 87 -12 c86 -11 438 -17 447 -8 3 2 0 22 -6 44 -15 56 -22 169
-10 161 5 -3 12 -25 15 -48 2 -24 19 -73 37 -110 l32 -68 88 0 c52 0 105 6
130 15 23 8 68 15 99 15 46 0 64 5 92 26 19 14 40 29 47 33 7 4 28 65 46 137
19 71 38 139 43 151 9 26 99 97 187 150 92 55 89 50 65 93 -19 33 -28 39 -68
45 -108 15 -111 16 -131 54 -10 20 -35 51 -54 70 -22 20 -40 51 -49 80 l-13
46 -79 3 -79 3 -51 48 c-27 26 -62 55 -77 65 -32 21 -129 137 -152 184 -17 33
-17 34 8 67 39 50 35 65 -17 65 -36 0 -49 6 -75 33 -29 30 -32 38 -33 102 -2
108 -6 118 -67 134 -47 13 -52 17 -52 42 0 20 -10 36 -35 56 -40 32 -42 44
-15 97 22 45 14 71 -26 86 -20 8 -25 16 -22 37 2 23 10 29 47 40 24 7 53 20
63 30 31 28 50 83 43 123 -18 104 -18 131 4 154 14 15 24 41 27 77 3 30 15 67
26 83 19 26 19 33 8 106 l-12 79 -71 -2 -70 -2 -36 60 c-27 47 -36 73 -39 122
-7 100 3 130 47 153 44 22 51 35 51 91 0 36 26 79 48 79 4 0 8 19 8 43 0 23 1
56 2 72 0 17 1 44 1 60 -1 17 2 51 6 77 5 30 3 65 -5 95 -18 66 -29 141 -39
253 -8 85 -7 98 10 121 16 24 17 28 4 39 -8 7 -15 20 -15 30 0 25 73 79 139
101 72 24 81 49 45 113 -13 22 -24 49 -24 58 0 10 -16 33 -35 52 -26 26 -35
44 -35 68 0 57 -32 95 -95 113 -41 12 -59 23 -67 41 -6 13 -20 24 -30 24 -10
0 -26 9 -35 20 -10 11 -25 20 -35 20 -10 0 -30 19 -45 43 -31 49 -123 246
-123 265 0 17 45 15 60 -3 19 -23 30 -18 30 16 0 31 1 32 40 26 37 -5 40 -3
40 19 0 14 9 42 20 64 11 22 20 49 20 61 0 12 -22 57 -50 101 -27 43 -51 91
-52 106 -1 15 8 46 21 70 18 35 20 49 12 77 -8 28 -6 37 11 52 40 36 58 86 47
131 -8 37 -6 46 21 89 27 43 30 54 30 134 l0 87 -31 11 c-23 8 -29 15 -25 29
5 15 -3 21 -47 35 -52 17 -151 22 -193 11 -11 -3 -25 -17 -30 -32 -8 -21 -23
-31 -68 -45 -70 -23 -106 -17 -106 17 0 14 -3 31 -6 40 -5 13 1 16 33 16 29 0
46 7 63 25 l23 25 -44 0 c-42 0 -47 3 -62 36 -10 19 -15 40 -11 45 3 5 38 10
77 10 40 0 84 0 99 0 33 0 52 21 43 50 -6 19 -12 20 -53 14 -55 -8 -51 -8 -79
-6 -14 1 -23 7 -23 18 0 9 -8 25 -17 35 -15 17 -15 20 -1 35 13 13 22 14 49 4
17 -6 45 -11 60 -11 27 0 29 2 29 43 0 24 -7 52 -15 63 -22 29 -19 100 6 134
19 25 21 37 15 95 -6 61 -5 69 19 96 31 37 31 46 3 76 -30 32 -16 76 25 81 26
3 28 6 22 35 -4 18 -20 46 -36 62 -18 20 -27 37 -23 50 2 11 11 67 19 125 9
58 18 120 22 139 l6 34 -39 -6 c-38 -5 -40 -4 -73 45 -26 40 -32 58 -28 84 5
27 1 35 -20 49 -23 15 -27 15 -41 2 -13 -14 -19 -14 -43 -2 -23 13 -29 13 -39
0 -10 -13 -19 -2 -50 62 -21 43 -41 86 -44 95 -3 12 -20 20 -48 24 -34 5 -53
17 -90 55 -52 53 -77 69 -108 69 -12 0 -39 12 -60 27 -30 22 -40 38 -49 76
-16 72 -15 77 41 168 50 82 54 94 74 233 5 38 14 56 37 75 29 24 29 27 24 94
-5 75 -6 77 -75 103 -40 16 -45 16 -81 0 -37 -17 -40 -17 -78 3 -22 11 -43 29
-45 39 -4 15 -18 20 -74 26 -38 4 -86 9 -106 13 -33 5 -38 3 -38 -15z"/>
</g>
</svg>
